;FLAVOR:Marlin
;TIME:6415
;Filament used: 4.86591m
;Layer height: 0.15
;MINX:74.8
;MINY:59.8
;MINZ:0.25
;MAXX:145.2
;MAXY:160.2
;MAXZ:5.05
;ZOFFSETPROCESSED
;Generated with Cura_SteamEngine 4.13.1
M140 S55
M105
M190 S55
M104 S205
M105
M109 S205
M82 ;absolute extrusion mode
G21; metric values
G90;
M104 S205
M140 S55; start bed warming to 60 degrees C.
M82; set extruder to absolute mode

M92 X79.87 Y80.13 Z401.96

M107; start with the fan off
G28 X0 Y0; move X / Y to min endstops
G28 Z0; move Z to min endstops
G1 Z15.0 F 90; move the nozzle up 30mm
G92 E0; zero the extruded length
G1 F200 E15; extrude 15mm of feed stock the amount retracted at end
G92 E0; zero the extruded length again
M117; Imprimiendo
G92 E0
G92 E0
G1 F2400 E-6.5
;LAYER_COUNT:33
;LAYER:0
M107
G0 F5400 X77.355 Y63.267 Z0.15 ;adjusted by z offset
G92 Z0.25 ;consider this the original z before offset
;TYPE:SKIRT
G1 F2400 E0
G1 F1800 X77.981 Y62.617 E0.03752
G1 X78.662 Y62.024 E0.07506
G1 X79.394 Y61.494 E0.11263
G1 X80.169 Y61.031 E0.15017
G1 X80.982 Y60.638 E0.18771
G1 X81.827 Y60.318 E0.22527
G1 X82.696 Y60.075 E0.26279
G1 X83.584 Y59.909 E0.30035
G1 X84.723 Y59.813 E0.34787
G1 X85.044 Y59.804 E0.36122
G1 X85.33 Y59.8 E0.37311
G1 X134.293 Y59.8 E2.40876
G1 X135.137 Y59.811 E2.44385
G1 X136.039 Y59.864 E2.48142
G1 X136.932 Y59.996 E2.51895
G1 X137.81 Y60.207 E2.55649
G1 X138.666 Y60.495 E2.59404
G1 X139.493 Y60.857 E2.63157
G1 X140.285 Y61.292 E2.66914
G1 X141.036 Y61.794 E2.70669
G1 X141.739 Y62.361 E2.74424
G1 X142.389 Y62.988 E2.78179
G1 X142.981 Y63.67 E2.81933
G1 X143.511 Y64.401 E2.85687
G1 X143.973 Y65.177 E2.89442
G1 X144.366 Y65.99 E2.93196
G1 X144.684 Y66.835 E2.9695
G1 X144.927 Y67.705 E3.00705
G1 X145.092 Y68.593 E3.04461
G1 X145.187 Y69.723 E3.09175
G1 X145.196 Y70.043 E3.10506
G1 X145.2 Y70.33 E3.11699
G1 X145.199 Y149.39 E6.40393
G1 X145.19 Y150.117 E6.43415
G1 X145.139 Y151.019 E6.47171
G1 X145.008 Y151.913 E6.50928
G1 X144.799 Y152.791 E6.5468
G1 X144.513 Y153.648 E6.58436
G1 X144.152 Y154.476 E6.62192
G1 X143.72 Y155.268 E6.65943
G1 X143.219 Y156.02 E6.69699
G1 X142.653 Y156.724 E6.73455
G1 X142.028 Y157.375 E6.77207
G1 X141.347 Y157.969 E6.80964
G1 X140.616 Y158.5 E6.8472
G1 X139.842 Y158.964 E6.88472
G1 X139.029 Y159.358 E6.92228
G1 X138.185 Y159.678 E6.95981
G1 X137.315 Y159.923 E6.99738
G1 X136.428 Y160.089 E7.0349
G1 X135.277 Y160.187 E7.08293
G1 X134.956 Y160.196 E7.09628
G1 X134.67 Y160.2 E7.10817
G1 X85.575 Y160.199 E9.1493
G1 X84.877 Y160.19 E9.17833
G1 X83.976 Y160.139 E9.21584
G1 X83.082 Y160.007 E9.25342
G1 X82.204 Y159.798 E9.29094
G1 X81.347 Y159.511 E9.32851
G1 X80.52 Y159.15 E9.36603
G1 X79.727 Y158.717 E9.40359
G1 X78.976 Y158.216 E9.44113
G1 X78.272 Y157.65 E9.47868
G1 X77.621 Y157.024 E9.51623
G1 X77.028 Y156.343 E9.55377
G1 X76.498 Y155.612 E9.59131
G1 X76.034 Y154.837 E9.62887
G1 X75.64 Y154.024 E9.66643
G1 X75.32 Y153.18 E9.70395
G1 X75.076 Y152.31 E9.74152
G1 X74.91 Y151.422 E9.77908
G1 X74.813 Y150.267 E9.82727
G1 X74.804 Y149.934 E9.84112
G1 X74.8 Y149.658 E9.85259
G1 X74.801 Y70.536 E13.1421
G1 X74.81 Y69.871 E13.16975
G1 X74.862 Y68.969 E13.20731
G1 X74.994 Y68.076 E13.24484
G1 X75.204 Y67.198 E13.28238
G1 X75.491 Y66.341 E13.31995
G1 X75.853 Y65.514 E13.35748
G1 X76.286 Y64.722 E13.39501
G1 X76.788 Y63.971 E13.43257
G1 X77.355 Y63.267 E13.47015
G1 F2400 E6.97015
;MESH:Tapa_30x15.stl
G0 F5400 X84.335 Y70.614
G0 X85.614 Y70.614
G1 F2400 E13.47015
G0 F5400 X85.2 Y70.2
;TYPE:WALL-OUTER
G1 F1800 X134.8 Y70.2 E15.53228
G1 X134.8 Y149.8 E18.84166
G1 X85.2 Y149.8 E20.90379
G1 X85.2 Y70.2 E24.21317
G1 F2400 E17.71317
G0 F5400 X85.67 Y70.67
G0 X106.585 Y77.556
G1 F2400 E24.21317
G0 F5400 X107.006 Y77.825
G1 F1800 X106.778 Y78.181 E24.23075
G1 X106.591 Y78.56 E24.24832
G1 X106.45 Y78.957 E24.26584
G1 X106.354 Y79.369 E24.28342
G1 X106.306 Y79.789 E24.301
G1 X106.306 Y80.211 E24.31854
G1 X106.354 Y80.631 E24.33612
G1 X106.45 Y81.043 E24.35371
G1 X106.591 Y81.44 E24.37122
G1 X106.778 Y81.819 E24.38879
G1 X107.006 Y82.175 E24.40637
G1 X107.273 Y82.503 E24.42395
G1 X107.577 Y82.796 E24.44151
G1 X107.911 Y83.054 E24.45905
G1 X108.273 Y83.273 E24.47664
G1 X108.657 Y83.449 E24.4942
G1 X109.059 Y83.579 E24.51177
G1 X109.473 Y83.662 E24.52932
G1 X109.894 Y83.699 E24.54689
G1 X110.317 Y83.687 E24.56449
G1 X110.735 Y83.626 E24.58205
G1 X111.144 Y83.52 E24.59962
G1 X111.537 Y83.366 E24.61716
G1 X111.91 Y83.169 E24.6347
G1 X112.259 Y82.931 E24.65226
G1 X112.579 Y82.654 E24.66986
G1 X112.864 Y82.343 E24.6874
G1 X113.113 Y82 E24.70502
G1 X113.321 Y81.632 E24.7226
G1 X113.485 Y81.243 E24.74015
G1 X113.604 Y80.838 E24.7577
G1 X113.676 Y80.422 E24.77525
G1 X113.7 Y80 E24.79282
G1 X113.676 Y79.578 E24.81039
G1 X113.604 Y79.162 E24.82795
G1 X113.485 Y78.757 E24.8455
G1 X113.321 Y78.368 E24.86305
G1 X113.113 Y78 E24.88062
G1 X112.864 Y77.657 E24.89824
G1 X112.579 Y77.346 E24.91578
G1 X112.259 Y77.069 E24.93338
G1 X111.91 Y76.831 E24.95094
G1 X111.537 Y76.634 E24.96848
G1 X111.144 Y76.48 E24.98603
G1 X110.735 Y76.374 E25.00359
G1 X110.317 Y76.313 E25.02116
G1 X109.894 Y76.301 E25.03875
G1 X109.473 Y76.338 E25.05632
G1 X109.059 Y76.421 E25.07387
G1 X108.657 Y76.551 E25.09144
G1 X108.273 Y76.727 E25.109
G1 X107.911 Y76.946 E25.12659
G1 X107.577 Y77.204 E25.14414
G1 X107.273 Y77.497 E25.16169
G1 X107.006 Y77.825 E25.17928
G1 F2400 E18.67928
G0 F5400 X106.585 Y77.556
G0 X106.028 Y78.833
G0 X105.867 Y79.764
G0 X105.914 Y80.61
G0 X107.927 Y88.248
G1 F2400 E25.17928
G0 F5400 X108.263 Y88.617
G1 F1800 X108.001 Y88.962 E25.19729
G1 X107.808 Y89.351 E25.21534
G1 X107.69 Y89.768 E25.23336
G1 X107.649 Y90.2 E25.2514
G1 X107.69 Y90.632 E25.26944
G1 X107.808 Y91.049 E25.28746
G1 X108.001 Y91.438 E25.30551
G1 X108.263 Y91.783 E25.32352
G1 X108.583 Y92.076 E25.34156
G1 X108.953 Y92.305 E25.35965
G1 X109.357 Y92.461 E25.37766
G1 X109.783 Y92.541 E25.39568
G1 X110.217 Y92.541 E25.41372
G1 X110.643 Y92.461 E25.43174
G1 X111.047 Y92.305 E25.44975
G1 X111.417 Y92.076 E25.46784
G1 X111.737 Y91.783 E25.48588
G1 X111.999 Y91.438 E25.50389
G1 X112.192 Y91.049 E25.52194
G1 X112.31 Y90.632 E25.53996
G1 X112.351 Y90.2 E25.558
G1 X112.31 Y89.768 E25.57604
G1 X112.192 Y89.351 E25.59406
G1 X111.999 Y88.962 E25.61211
G1 X111.737 Y88.617 E25.63012
G1 X111.417 Y88.324 E25.64816
G1 X111.047 Y88.095 E25.66625
G1 X110.643 Y87.939 E25.68426
G1 X110.217 Y87.859 E25.70228
G1 X109.783 Y87.859 E25.72032
G1 X109.357 Y87.939 E25.73834
G1 X108.953 Y88.095 E25.75635
G1 X108.583 Y88.324 E25.77444
G1 X108.263 Y88.617 E25.79248
G1 F2400 E19.29248
G0 F5400 X107.927 Y88.248
G0 X97.787 Y100.964
G1 F2400 E25.79248
G0 F5400 X98.14 Y101.317
G1 F1800 X97.817 Y101.64 E25.81147
G1 X97.609 Y102.048 E25.83051
G1 X97.537 Y102.5 E25.84954
G1 X97.609 Y102.952 E25.86856
G1 X97.817 Y103.36 E25.8876
G1 X98.14 Y103.683 E25.9066
G1 X98.548 Y103.891 E25.92563
G1 X99 Y103.963 E25.94466
G1 X99.452 Y103.891 E25.96369
G1 X99.86 Y103.683 E25.98273
G1 X100.183 Y103.36 E26.00172
G1 X100.391 Y102.952 E26.02076
G1 X100.463 Y102.5 E26.03979
G1 X100.391 Y102.048 E26.05882
G1 X100.183 Y101.64 E26.07786
G1 X99.86 Y101.317 E26.09685
G1 X99.452 Y101.109 E26.11589
G1 X99 Y101.037 E26.13492
G1 X98.548 Y101.109 E26.15395
G1 X98.14 Y101.317 E26.17299
G1 F2400 E19.67299
G0 F5400 X97.787 Y100.964
G0 X97.457 Y101.379
G0 X97.186 Y101.911
G0 X97.111 Y102.388
G0 X97.787 Y115.964
G1 F2400 E26.17299
G0 F5400 X98.14 Y116.317
G1 F1800 X97.817 Y116.64 E26.19198
G1 X97.609 Y117.048 E26.21102
G1 X97.537 Y117.5 E26.23005
G1 X97.609 Y117.952 E26.24908
G1 X97.817 Y118.36 E26.26812
G1 X98.14 Y118.683 E26.28711
G1 X98.548 Y118.891 E26.30615
G1 X99 Y118.963 E26.32518
G1 X99.452 Y118.891 E26.34421
G1 X99.86 Y118.683 E26.36325
G1 X100.183 Y118.36 E26.38224
G1 X100.391 Y117.952 E26.40128
G1 X100.463 Y117.5 E26.42031
G1 X100.391 Y117.048 E26.43934
G1 X100.183 Y116.64 E26.45838
G1 X99.86 Y116.317 E26.47737
G1 X99.452 Y116.109 E26.49641
G1 X99 Y116.037 E26.51543
G1 X98.548 Y116.109 E26.53446
G1 X98.14 Y116.317 E26.5535
G1 F2400 E20.0535
G0 F5400 X97.787 Y115.964
G0 X98.411 Y115.686
G0 X99 Y115.592
G0 X99.589 Y115.686
G0 X100.121 Y115.957
G0 X100.462 Y116.298
G0 X108.321 Y127.499
G1 F2400 E26.5535
G0 F5400 X108.583 Y127.924
G1 F1800 X108.263 Y128.217 E26.57154
G1 X108.001 Y128.562 E26.58955
G1 X107.808 Y128.951 E26.60761
G1 X107.69 Y129.368 E26.62562
G1 X107.649 Y129.8 E26.64367
G1 X107.69 Y130.232 E26.66171
G1 X107.808 Y130.649 E26.67972
G1 X108.001 Y131.038 E26.69778
G1 X108.263 Y131.383 E26.71579
G1 X108.583 Y131.676 E26.73383
G1 X108.953 Y131.905 E26.75192
G1 X109.357 Y132.061 E26.76992
G1 X109.783 Y132.141 E26.78794
G1 X110.217 Y132.141 E26.80599
G1 X110.643 Y132.061 E26.82401
G1 X111.047 Y131.905 E26.84201
G1 X111.417 Y131.676 E26.8601
G1 X111.737 Y131.383 E26.87814
G1 X111.999 Y131.038 E26.89615
G1 X112.192 Y130.649 E26.91421
G1 X112.31 Y130.232 E26.93222
G1 X112.351 Y129.8 E26.95027
G1 X112.31 Y129.368 E26.96831
G1 X112.192 Y128.951 E26.98632
G1 X111.999 Y128.562 E27.00438
G1 X111.737 Y128.217 E27.02239
G1 X111.417 Y127.924 E27.04043
G1 X111.047 Y127.695 E27.05852
G1 X110.643 Y127.539 E27.07652
G1 X110.217 Y127.459 E27.09454
G1 X109.783 Y127.459 E27.11259
G1 X109.357 Y127.539 E27.13061
G1 X108.953 Y127.695 E27.14861
G1 X108.583 Y127.924 E27.1667
G1 F2400 E20.6667
G0 F5400 X108.321 Y127.499
G0 X107.627 Y128.329
G0 X107.396 Y128.792
G0 X107.256 Y129.287
G0 X107.231 Y136.844
G1 F2400 E27.1667
G0 F5400 X107.577 Y137.204
G1 F1800 X107.273 Y137.497 E27.18426
G1 X107.006 Y137.825 E27.20184
G1 X106.778 Y138.181 E27.21942
G1 X106.591 Y138.56 E27.23699
G1 X106.45 Y138.957 E27.2545
G1 X106.354 Y139.369 E27.27209
G1 X106.306 Y139.789 E27.28967
G1 X106.306 Y140.211 E27.30721
G1 X106.354 Y140.631 E27.32479
G1 X106.45 Y141.043 E27.34237
G1 X106.591 Y141.44 E27.35989
G1 X106.778 Y141.819 E27.37746
G1 X107.006 Y142.175 E27.39504
G1 X107.273 Y142.503 E27.41262
G1 X107.577 Y142.796 E27.43017
G1 X107.911 Y143.054 E27.44772
G1 X108.273 Y143.273 E27.46531
G1 X108.657 Y143.449 E27.48287
G1 X109.059 Y143.579 E27.50044
G1 X109.473 Y143.662 E27.51799
G1 X109.894 Y143.699 E27.53556
G1 X110.317 Y143.687 E27.55316
G1 X110.735 Y143.626 E27.57072
G1 X111.144 Y143.52 E27.58828
G1 X111.537 Y143.366 E27.60583
G1 X111.91 Y143.169 E27.62337
G1 X112.259 Y142.931 E27.64093
G1 X112.579 Y142.654 E27.65853
G1 X112.864 Y142.343 E27.67607
G1 X113.113 Y142 E27.69369
G1 X113.321 Y141.632 E27.71126
G1 X113.485 Y141.243 E27.72881
G1 X113.604 Y140.838 E27.74636
G1 X113.676 Y140.422 E27.76392
G1 X113.7 Y140 E27.78149
G1 X113.676 Y139.578 E27.79906
G1 X113.604 Y139.162 E27.81662
G1 X113.485 Y138.757 E27.83416
G1 X113.321 Y138.368 E27.85172
G1 X113.113 Y138 E27.86929
G1 X112.864 Y137.657 E27.88691
G1 X112.579 Y137.346 E27.90445
G1 X112.259 Y137.069 E27.92205
G1 X111.91 Y136.831 E27.93961
G1 X111.537 Y136.634 E27.95715
G1 X111.144 Y136.48 E27.9747
G1 X110.735 Y136.374 E27.99226
G1 X110.317 Y136.313 E28.00982
G1 X109.894 Y136.301 E28.02742
G1 X109.473 Y136.338 E28.04499
G1 X109.059 Y136.421 E28.06254
G1 X108.657 Y136.551 E28.08011
G1 X108.273 Y136.727 E28.09767
G1 X107.911 Y136.946 E28.11526
G1 X107.577 Y137.204 E28.13281
G1 F2400 E21.63281
G0 F5400 X107.231 Y136.844
G0 X112.063 Y131.68
G0 X112.314 Y131.349
G0 X119.372 Y116.413
G1 F2400 E28.13281
G0 F5400 X119.817 Y116.64
G1 F1800 X119.609 Y117.048 E28.15185
G1 X119.537 Y117.5 E28.17087
G1 X119.609 Y117.952 E28.1899
G1 X119.817 Y118.36 E28.20894
G1 X120.14 Y118.683 E28.22793
G1 X120.548 Y118.891 E28.24697
G1 X121 Y118.963 E28.266
G1 X121.452 Y118.891 E28.28503
G1 X121.86 Y118.683 E28.30407
G1 X122.183 Y118.36 E28.32306
G1 X122.391 Y117.952 E28.3421
G1 X122.463 Y117.5 E28.36113
G1 X122.391 Y117.048 E28.38016
G1 X122.183 Y116.64 E28.3992
G1 X121.86 Y116.317 E28.41819
G1 X121.452 Y116.109 E28.43723
G1 X121 Y116.037 E28.45626
G1 X120.548 Y116.109 E28.47529
G1 X120.14 Y116.317 E28.49433
G1 X119.817 Y116.64 E28.51332
G1 F2400 E22.01332
G0 F5400 X119.372 Y116.413
G0 X119.092 Y102.5
G0 X119.144 Y102.167
G0 X119.372 Y101.413
G1 F2400 E28.51332
G0 F5400 X119.817 Y101.64
G1 F1800 X119.609 Y102.048 E28.53236
G1 X119.537 Y102.5 E28.55139
G1 X119.609 Y102.952 E28.57042
G1 X119.817 Y103.36 E28.58946
G1 X120.14 Y103.683 E28.60845
G1 X120.548 Y103.891 E28.62749
G1 X121 Y103.963 E28.64652
G1 X121.452 Y103.891 E28.66555
G1 X121.86 Y103.683 E28.68459
G1 X122.183 Y103.36 E28.70358
G1 X122.391 Y102.952 E28.72262
G1 X122.463 Y102.5 E28.74165
G1 X122.391 Y102.048 E28.76067
G1 X122.183 Y101.64 E28.77971
G1 X121.86 Y101.317 E28.79871
G1 X121.452 Y101.109 E28.81775
G1 X121 Y101.037 E28.83677
G1 X120.548 Y101.109 E28.8558
G1 X120.14 Y101.317 E28.87484
G1 X119.817 Y101.64 E28.89383
G1 F2400 E22.39383
G0 F5400 X119.372 Y101.413
G0 X107.937 Y92.08
G0 X85.67 Y70.67
G1 F2400 E28.89383
G0 F5400 X85.6 Y70.6
;TYPE:WALL-INNER
G1 F1800 X134.4 Y70.6 E30.9227
G1 X134.4 Y149.4 E34.19883
G1 X85.6 Y149.4 E36.22769
G1 X85.6 Y70.6 E39.50382
G0 F5400 X85.67 Y70.67
G0 X106.601 Y77.532
G0 X106.681 Y77.59
G1 F1800 X106.429 Y77.984 E39.52326
G1 X106.222 Y78.404 E39.54273
G1 X106.066 Y78.844 E39.56214
G1 X105.959 Y79.301 E39.58165
G1 X105.906 Y79.766 E39.60111
G1 X105.906 Y80.234 E39.62057
G1 X105.959 Y80.699 E39.64002
G1 X106.066 Y81.156 E39.65954
G1 X106.222 Y81.596 E39.67895
G1 X106.429 Y82.016 E39.69841
G1 X106.681 Y82.41 E39.71786
G1 X106.978 Y82.774 E39.73739
G1 X107.315 Y83.099 E39.75685
G1 X107.684 Y83.384 E39.77624
G1 X108.086 Y83.627 E39.79577
G1 X108.512 Y83.822 E39.81525
G1 X108.958 Y83.967 E39.83474
G1 X109.416 Y84.059 E39.85417
G1 X109.882 Y84.099 E39.87361
G1 X110.352 Y84.086 E39.89316
G1 X110.814 Y84.019 E39.91257
G1 X111.268 Y83.901 E39.93207
G1 X111.704 Y83.73 E39.95154
G1 X112.117 Y83.512 E39.97096
G1 X112.503 Y83.248 E39.9904
G1 X112.858 Y82.941 E40.00991
G1 X113.174 Y82.596 E40.02936
G1 X113.45 Y82.217 E40.04886
G1 X113.681 Y81.809 E40.06835
G1 X113.862 Y81.378 E40.08778
G1 X113.994 Y80.929 E40.10724
G1 X114.074 Y80.468 E40.12669
G1 X114.101 Y80 E40.14618
G1 X114.074 Y79.532 E40.16567
G1 X113.994 Y79.071 E40.18512
G1 X113.862 Y78.622 E40.20458
G1 X113.681 Y78.191 E40.22402
G1 X113.45 Y77.783 E40.24351
G1 X113.174 Y77.404 E40.263
G1 X112.858 Y77.059 E40.28245
G1 X112.503 Y76.752 E40.30197
G1 X112.117 Y76.488 E40.32141
G1 X111.704 Y76.27 E40.34082
G1 X111.268 Y76.099 E40.36029
G1 X110.814 Y75.981 E40.3798
G1 X110.352 Y75.914 E40.39921
G1 X109.882 Y75.901 E40.41875
G1 X109.416 Y75.941 E40.4382
G1 X108.958 Y76.033 E40.45762
G1 X108.512 Y76.178 E40.47712
G1 X108.086 Y76.373 E40.4966
G1 X107.684 Y76.616 E40.51613
G1 X107.315 Y76.901 E40.53551
G1 X106.978 Y77.226 E40.55497
G1 X106.681 Y77.59 E40.57451
G0 F5400 X106.601 Y77.532
G0 X106.028 Y78.833
G0 X105.867 Y79.764
G0 X105.914 Y80.61
G0 X107.893 Y88.279
G0 X107.966 Y88.346
G1 F1800 X107.66 Y88.75 E40.59558
G1 X107.433 Y89.206 E40.61675
G1 X107.295 Y89.694 E40.63784
G1 X107.247 Y90.2 E40.65897
G1 X107.295 Y90.706 E40.6801
G1 X107.433 Y91.194 E40.70119
G1 X107.66 Y91.65 E40.72236
G1 X107.966 Y92.054 E40.74343
G1 X108.341 Y92.396 E40.76453
G1 X108.774 Y92.665 E40.78573
G1 X109.247 Y92.847 E40.8068
G1 X109.746 Y92.941 E40.82791
G1 X110.254 Y92.941 E40.84903
G1 X110.753 Y92.847 E40.87014
G1 X111.226 Y92.665 E40.89121
G1 X111.659 Y92.396 E40.9124
G1 X112.034 Y92.054 E40.9335
G1 X112.34 Y91.65 E40.95458
G1 X112.567 Y91.194 E40.97575
G1 X112.705 Y90.706 E40.99684
G1 X112.753 Y90.2 E41.01797
G1 X112.705 Y89.694 E41.0391
G1 X112.567 Y89.206 E41.06018
G1 X112.34 Y88.75 E41.08136
G1 X112.034 Y88.346 E41.10243
G1 X111.659 Y88.004 E41.12353
G1 X111.226 Y87.735 E41.14473
