;FLAVOR:Marlin
;TIME:7701
;Filament used: 6.09425m
;Layer height: 0.15
;MINX:74.8
;MINY:49.8
;MINZ:0.25
;MAXX:145.2
;MAXY:170.2
;MAXZ:5.05
;ZOFFSETPROCESSED
;Generated with Cura_SteamEngine 4.13.1
M140 S55
M105
M190 S55
M104 S205
M105
M109 S205
M82 ;absolute extrusion mode
G21; metric values
G90;
M104 S205
M140 S55; start bed warming to 60 degrees C.
M82; set extruder to absolute mode

M92 X79.87 Y80.13 Z401.96

M107; start with the fan off
G28 X0 Y0; move X / Y to min endstops
G28 Z0; move Z to min endstops
G1 Z15.0 F 90; move the nozzle up 30mm
G92 E0; zero the extruded length
G1 F200 E15; extrude 15mm of feed stock the amount retracted at end
G92 E0; zero the extruded length again
M117; Imprimiendo
G92 E0
G92 E0
G1 F2400 E-6.5
;LAYER_COUNT:33
;LAYER:0
M107
G0 F5400 X76.788 Y53.971 Z0.15 ;adjusted by z offset
G92 Z0.25 ;consider this the original z before offset
;TYPE:SKIRT
G1 F2400 E0
G1 F1800 X77.355 Y53.267 E0.03758
G1 X77.981 Y52.617 E0.0751
G1 X78.662 Y52.024 E0.11264
G1 X79.394 Y51.494 E0.15022
G1 X80.169 Y51.031 E0.18775
G1 X80.982 Y50.638 E0.22529
G1 X81.827 Y50.318 E0.26286
G1 X82.696 Y50.075 E0.30037
G1 X83.584 Y49.909 E0.33793
G1 X84.723 Y49.813 E0.38545
G1 X85.044 Y49.804 E0.3988
G1 X85.33 Y49.8 E0.41069
G1 X134.293 Y49.8 E2.44634
G1 X135.137 Y49.811 E2.48143
G1 X136.039 Y49.864 E2.519
G1 X136.932 Y49.996 E2.55653
G1 X137.81 Y50.207 E2.59407
G1 X138.666 Y50.495 E2.63162
G1 X139.493 Y50.857 E2.66915
G1 X140.285 Y51.292 E2.70672
G1 X141.036 Y51.794 E2.74427
G1 X141.739 Y52.361 E2.78182
G1 X142.389 Y52.988 E2.81937
G1 X142.981 Y53.67 E2.85692
G1 X143.511 Y54.401 E2.89446
G1 X143.973 Y55.177 E2.932
G1 X144.366 Y55.99 E2.96955
G1 X144.684 Y56.835 E3.00708
G1 X144.927 Y57.705 E3.04464
G1 X145.092 Y58.593 E3.08219
G1 X145.187 Y59.723 E3.12933
G1 X145.196 Y60.043 E3.14264
G1 X145.2 Y60.33 E3.15458
G1 X145.199 Y159.39 E7.27301
G1 X145.19 Y160.117 E7.30324
G1 X145.139 Y161.019 E7.3408
G1 X145.008 Y161.913 E7.37836
G1 X144.799 Y162.791 E7.41589
G1 X144.513 Y163.648 E7.45345
G1 X144.152 Y164.476 E7.491
G1 X143.72 Y165.268 E7.52851
G1 X143.219 Y166.02 E7.56608
G1 X142.653 Y166.724 E7.60363
G1 X142.028 Y167.375 E7.64115
G1 X141.347 Y167.969 E7.67872
G1 X140.616 Y168.5 E7.71629
G1 X139.842 Y168.964 E7.7538
G1 X139.029 Y169.358 E7.79137
G1 X138.185 Y169.678 E7.82889
G1 X137.315 Y169.923 E7.86647
G1 X136.428 Y170.089 E7.90399
G1 X135.277 Y170.187 E7.95201
G1 X134.956 Y170.196 E7.96536
G1 X134.67 Y170.2 E7.97726
G1 X85.575 Y170.199 E10.01839
G1 X84.877 Y170.19 E10.04741
G1 X83.976 Y170.139 E10.08493
G1 X83.082 Y170.007 E10.1225
G1 X82.204 Y169.798 E10.16002
G1 X81.347 Y169.511 E10.1976
G1 X80.52 Y169.15 E10.23511
G1 X79.727 Y168.717 E10.27268
G1 X78.976 Y168.216 E10.31021
G1 X78.272 Y167.65 E10.34777
G1 X77.621 Y167.024 E10.38531
G1 X77.028 Y166.343 E10.42286
G1 X76.498 Y165.612 E10.4604
G1 X76.034 Y164.837 E10.49795
G1 X75.64 Y164.024 E10.53551
G1 X75.32 Y163.18 E10.57304
G1 X75.076 Y162.31 E10.6106
G1 X74.91 Y161.422 E10.64816
G1 X74.813 Y160.267 E10.69635
G1 X74.804 Y159.934 E10.7102
G1 X74.8 Y159.658 E10.72168
G1 X74.801 Y60.536 E14.84269
G1 X74.81 Y59.871 E14.87034
G1 X74.862 Y58.969 E14.9079
G1 X74.994 Y58.076 E14.94543
G1 X75.204 Y57.198 E14.98297
G1 X75.491 Y56.341 E15.02054
G1 X75.853 Y55.514 E15.05807
G1 X76.286 Y54.722 E15.0956
G1 X76.788 Y53.971 E15.13316
G1 F2400 E8.63316
;MESH:Tapa_33x33 y 20x30.stl
G0 F5400 X84.335 Y60.614
G0 X85.614 Y60.614
G1 F2400 E15.13316
G0 F5400 X85.2 Y60.2
;TYPE:WALL-OUTER
G1 F1800 X134.8 Y60.2 E17.19528
G1 X134.8 Y159.8 E21.33617
G1 X85.2 Y159.8 E23.3983
G1 X85.2 Y60.2 E27.53919
G1 F2400 E21.03919
G0 F5400 X85.67 Y60.67
G0 X106.585 Y70.556
G1 F2400 E27.53919
G0 F5400 X107.006 Y70.825
G1 F1800 X106.778 Y71.181 E27.55676
G1 X106.591 Y71.56 E27.57433
G1 X106.45 Y71.957 E27.59185
G1 X106.354 Y72.369 E27.60944
G1 X106.306 Y72.789 E27.62701
G1 X106.306 Y73.211 E27.64456
G1 X106.354 Y73.631 E27.66213
G1 X106.45 Y74.043 E27.67972
G1 X106.591 Y74.44 E27.69723
G1 X106.778 Y74.819 E27.71481
G1 X107.006 Y75.175 E27.73238
G1 X107.273 Y75.503 E27.74997
G1 X107.577 Y75.796 E27.76752
G1 X107.911 Y76.054 E27.78507
G1 X108.273 Y76.273 E27.80266
G1 X108.657 Y76.449 E27.82022
G1 X109.059 Y76.579 E27.83778
G1 X109.473 Y76.662 E27.85534
G1 X109.894 Y76.699 E27.87291
G1 X110.317 Y76.687 E27.8905
G1 X110.735 Y76.626 E27.90806
G1 X111.144 Y76.52 E27.92563
G1 X111.537 Y76.366 E27.94318
G1 X111.91 Y76.169 E27.96072
G1 X112.259 Y75.931 E27.97828
G1 X112.579 Y75.654 E27.99587
G1 X112.864 Y75.343 E28.01341
G1 X113.113 Y75 E28.03103
G1 X113.321 Y74.632 E28.04861
G1 X113.485 Y74.243 E28.06616
G1 X113.604 Y73.838 E28.08371
G1 X113.676 Y73.422 E28.10126
G1 X113.7 Y73 E28.11884
G1 X113.676 Y72.578 E28.13641
G1 X113.604 Y72.162 E28.15396
G1 X113.485 Y71.757 E28.17151
G1 X113.321 Y71.368 E28.18906
G1 X113.113 Y71 E28.20664
G1 X112.864 Y70.657 E28.22426
G1 X112.579 Y70.346 E28.2418
G1 X112.259 Y70.069 E28.25939
G1 X111.91 Y69.831 E28.27695
G1 X111.537 Y69.634 E28.29449
G1 X111.144 Y69.48 E28.31204
G1 X110.735 Y69.374 E28.32961
G1 X110.317 Y69.313 E28.34717
G1 X109.894 Y69.301 E28.36476
G1 X109.473 Y69.338 E28.38233
G1 X109.059 Y69.421 E28.39989
G1 X108.657 Y69.551 E28.41745
G1 X108.273 Y69.727 E28.43501
G1 X107.911 Y69.946 E28.4526
G1 X107.577 Y70.204 E28.47015
G1 X107.273 Y70.497 E28.48771
G1 X107.006 Y70.825 E28.50529
G1 F2400 E22.00529
G0 F5400 X106.585 Y70.556
G0 X106.028 Y71.833
G0 X105.867 Y72.764
G0 X105.909 Y73.525
G0 X107.555 Y81.739
G1 F2400 E28.50529
G0 F5400 X108.001 Y81.962
G1 F1800 X107.808 Y82.351 E28.52334
G1 X107.69 Y82.768 E28.54136
G1 X107.649 Y83.2 E28.5594
G1 X107.69 Y83.632 E28.57744
G1 X107.808 Y84.049 E28.59546
G1 X108.001 Y84.438 E28.61351
G1 X108.263 Y84.783 E28.63152
G1 X108.583 Y85.076 E28.64956
G1 X108.953 Y85.305 E28.66765
G1 X109.357 Y85.461 E28.68566
G1 X109.783 Y85.541 E28.70368
G1 X110.217 Y85.541 E28.72172
G1 X110.643 Y85.461 E28.73974
G1 X111.047 Y85.305 E28.75775
G1 X111.417 Y85.076 E28.77584
G1 X111.737 Y84.783 E28.79388
G1 X111.999 Y84.438 E28.81189
G1 X112.192 Y84.049 E28.82994
G1 X112.31 Y83.632 E28.84796
G1 X112.351 Y83.2 E28.866
G1 X112.31 Y82.768 E28.88404
G1 X112.192 Y82.351 E28.90206
G1 X111.999 Y81.962 E28.92011
G1 X111.737 Y81.617 E28.93812
G1 X111.417 Y81.324 E28.95616
G1 X111.047 Y81.095 E28.97425
G1 X110.643 Y80.939 E28.99226
G1 X110.217 Y80.859 E29.01028
G1 X109.783 Y80.859 E29.02832
G1 X109.357 Y80.939 E29.04634
G1 X108.953 Y81.095 E29.06435
G1 X108.583 Y81.324 E29.08244
G1 X108.263 Y81.617 E29.10048
G1 X108.001 Y81.962 E29.11849
G1 F2400 E22.61849
G0 F5400 X107.555 Y81.739
G0 X96.287 Y95.964
G1 F2400 E29.11849
G0 F5400 X96.64 Y96.317
G1 F1800 X96.317 Y96.64 E29.13748
G1 X96.109 Y97.048 E29.15652
G1 X96.037 Y97.5 E29.17555
G1 X96.109 Y97.952 E29.19458
G1 X96.317 Y98.36 E29.21362
G1 X96.64 Y98.683 E29.23261
G1 X97.048 Y98.891 E29.25165
G1 X97.5 Y98.963 E29.27068
G1 X97.952 Y98.891 E29.28971
G1 X98.36 Y98.683 E29.30875
G1 X98.683 Y98.36 E29.32774
G1 X98.891 Y97.952 E29.34678
G1 X98.963 Y97.5 E29.36581
G1 X98.891 Y97.048 E29.38483
G1 X98.683 Y96.64 E29.40387
G1 X98.36 Y96.317 E29.42287
G1 X97.952 Y96.109 E29.44191
G1 X97.5 Y96.037 E29.46093
G1 X97.048 Y96.109 E29.47996
G1 X96.64 Y96.317 E29.499
G1 F2400 E22.999
G0 F5400 X96.287 Y95.964
G0 X96.911 Y95.686
G0 X97.388 Y95.611
G0 X120.872 Y96.413
G1 F2400 E29.499
G0 F5400 X121.317 Y96.64
G1 F1800 X121.109 Y97.048 E29.51804
G1 X121.037 Y97.5 E29.53707
G1 X121.109 Y97.952 E29.5561
G1 X121.317 Y98.36 E29.57514
G1 X121.64 Y98.683 E29.59413
G1 X122.048 Y98.891 E29.61317
G1 X122.5 Y98.963 E29.6322
G1 X122.952 Y98.891 E29.65123
G1 X123.36 Y98.683 E29.67027
G1 X123.683 Y98.36 E29.68926
G1 X123.891 Y97.952 E29.7083
G1 X123.963 Y97.5 E29.72733
G1 X123.891 Y97.048 E29.74636
G1 X123.683 Y96.64 E29.7654
G1 X123.36 Y96.317 E29.78439
G1 X122.952 Y96.109 E29.80343
G1 X122.5 Y96.037 E29.82246
G1 X122.048 Y96.109 E29.84149
G1 X121.64 Y96.317 E29.86053
G1 X121.317 Y96.64 E29.87952
G1 F2400 E23.37952
G0 F5400 X120.872 Y96.413
G0 X120.686 Y96.911
G0 X120.611 Y97.388
G0 X121.287 Y120.964
G1 F2400 E29.87952
G0 F5400 X121.64 Y121.317
G1 F1800 X121.317 Y121.64 E29.89851
G1 X121.109 Y122.048 E29.91755
G1 X121.037 Y122.5 E29.93658
G1 X121.109 Y122.952 E29.95561
G1 X121.317 Y123.36 E29.97465
G1 X121.64 Y123.683 E29.99364
G1 X122.048 Y123.891 E30.01268
G1 X122.5 Y123.963 E30.03171
G1 X122.952 Y123.891 E30.05073
G1 X123.36 Y123.683 E30.06977
G1 X123.683 Y123.36 E30.08877
G1 X123.891 Y122.952 E30.10781
G1 X123.963 Y122.5 E30.12683
G1 X123.891 Y122.048 E30.14586
G1 X123.683 Y121.64 E30.1649
G1 X123.36 Y121.317 E30.18389
G1 X122.952 Y121.109 E30.20293
G1 X122.5 Y121.037 E30.22196
G1 X122.048 Y121.109 E30.24099
G1 X121.64 Y121.317 E30.26003
G1 F2400 E23.76003
G0 F5400 X121.287 Y120.964
G0 X108.321 Y134.499
G1 F2400 E30.26003
G0 F5400 X108.583 Y134.924
G1 F1800 X108.263 Y135.217 E30.27807
G1 X108.001 Y135.562 E30.29608
G1 X107.808 Y135.951 E30.31413
G1 X107.69 Y136.368 E30.33215
G1 X107.649 Y136.8 E30.35019
G1 X107.69 Y137.232 E30.36823
G1 X107.808 Y137.649 E30.38625
G1 X108.001 Y138.038 E30.40431
G1 X108.263 Y138.383 E30.42232
G1 X108.583 Y138.676 E30.44036
G1 X108.953 Y138.905 E30.45845
G1 X109.357 Y139.061 E30.47645
G1 X109.783 Y139.141 E30.49447
G1 X110.217 Y139.141 E30.51252
G1 X110.643 Y139.061 E30.53054
G1 X111.047 Y138.905 E30.54854
G1 X111.417 Y138.676 E30.56663
G1 X111.737 Y138.383 E30.58467
G1 X111.999 Y138.038 E30.60268
G1 X112.192 Y137.649 E30.62073
G1 X112.31 Y137.232 E30.63875
G1 X112.351 Y136.8 E30.65679
G1 X112.31 Y136.368 E30.67483
G1 X112.192 Y135.951 E30.69285
G1 X111.999 Y135.562 E30.71091
G1 X111.737 Y135.217 E30.72892
G1 X111.417 Y134.924 E30.74696
G1 X111.047 Y134.695 E30.76505
G1 X110.643 Y134.539 E30.78305
G1 X110.217 Y134.459 E30.80107
G1 X109.783 Y134.459 E30.81912
G1 X109.357 Y134.539 E30.83714
G1 X108.953 Y134.695 E30.85514
G1 X108.583 Y134.924 E30.87323
G1 F2400 E24.37323
G0 F5400 X108.321 Y134.499
G0 X107.627 Y135.329
G0 X107.396 Y135.792
G0 X107.256 Y136.287
G0 X107.229 Y136.576
G0 X107.606 Y143.55
G1 F2400 E30.87323
G0 F5400 X107.911 Y143.946
G1 F1800 X107.577 Y144.204 E30.89078
G1 X107.273 Y144.497 E30.90833
G1 X107.006 Y144.825 E30.92592
G1 X106.778 Y145.181 E30.94349
G1 X106.591 Y145.56 E30.96106
G1 X106.45 Y145.957 E30.97858
G1 X106.354 Y146.369 E30.99617
G1 X106.306 Y146.789 E31.01374
G1 X106.306 Y147.211 E31.03129
G1 X106.354 Y147.631 E31.04886
G1 X106.45 Y148.043 E31.06645
G1 X106.591 Y148.44 E31.08396
G1 X106.778 Y148.819 E31.10153
G1 X107.006 Y149.175 E31.11911
G1 X107.273 Y149.503 E31.13669
G1 X107.577 Y149.796 E31.15425
G1 X107.911 Y150.054 E31.17179
G1 X108.273 Y150.273 E31.18938
G1 X108.657 Y150.449 E31.20695
G1 X109.059 Y150.579 E31.22451
G1 X109.473 Y150.662 E31.24207
G1 X109.894 Y150.699 E31.25964
G1 X110.317 Y150.687 E31.27723
G1 X110.735 Y150.626 E31.29479
G1 X111.144 Y150.52 E31.31236
G1 X111.537 Y150.366 E31.32991
G1 X111.91 Y150.169 E31.34744
G1 X112.259 Y149.931 E31.36501
G1 X112.579 Y149.654 E31.3826
G1 X112.864 Y149.343 E31.40014
G1 X113.113 Y149 E31.41776
G1 X113.321 Y148.632 E31.43534
G1 X113.485 Y148.243 E31.45289
G1 X113.604 Y147.838 E31.47044
G1 X113.676 Y147.422 E31.48799
G1 X113.7 Y147 E31.50556
G1 X113.676 Y146.578 E31.52314
G1 X113.604 Y146.162 E31.54069
G1 X113.485 Y145.757 E31.55824
G1 X113.321 Y145.368 E31.57579
G1 X113.113 Y145 E31.59336
G1 X112.864 Y144.657 E31.61099
G1 X112.579 Y144.346 E31.62852
G1 X112.259 Y144.069 E31.64612
G1 X111.91 Y143.831 E31.66368
G1 X111.537 Y143.634 E31.68122
G1 X111.144 Y143.48 E31.69877
G1 X110.735 Y143.374 E31.71634
G1 X110.317 Y143.313 E31.7339
G1 X109.894 Y143.301 E31.75149
G1 X109.473 Y143.338 E31.76906
G1 X109.059 Y143.421 E31.78662
G1 X108.657 Y143.551 E31.80418
G1 X108.273 Y143.727 E31.82174
G1 X107.911 Y143.946 E31.83933
G1 F2400 E25.33933
G0 F5400 X107.606 Y143.55
G0 X95.686 Y123.089
G0 X95.592 Y122.5
G0 X95.686 Y121.911
G0 X95.838 Y121.61
G0 X96.287 Y120.964
G1 F2400 E31.83933
G0 F5400 X96.64 Y121.317
G1 F1800 X96.317 Y121.64 E31.85832
G1 X96.109 Y122.048 E31.87736
G1 X96.037 Y122.5 E31.89639
G1 X96.109 Y122.952 E31.91542
G1 X96.317 Y123.36 E31.93446
G1 X96.64 Y123.683 E31.95345
G1 X97.048 Y123.891 E31.97249
G1 X97.5 Y123.963 E31.99152
G1 X97.952 Y123.891 E32.01055
G1 X98.36 Y123.683 E32.02959
G1 X98.683 Y123.36 E32.04858
G1 X98.891 Y122.952 E32.06762
G1 X98.963 Y122.5 E32.08665
G1 X98.891 Y122.048 E32.10568
G1 X98.683 Y121.64 E32.12472
G1 X98.36 Y121.317 E32.14371
G1 X97.952 Y121.109 E32.16275
G1 X97.5 Y121.037 E32.18178
G1 X97.048 Y121.109 E32.20081
G1 X96.64 Y121.317 E32.21985
G1 F2400 E25.71985
G0 F5400 X96.287 Y120.964
G0 X85.67 Y60.67
G1 F2400 E32.21985
G0 F5400 X85.6 Y60.6
;TYPE:WALL-INNER
G1 F1800 X134.4 Y60.6 E34.24872
G1 X134.4 Y159.4 E38.35634
G1 X85.6 Y159.4 E40.38521
G1 X85.6 Y60.6 E44.49284
G0 F5400 X85.67 Y60.67
G0 X106.601 Y70.532
G0 X106.681 Y70.59
G1 F1800 X106.429 Y70.984 E44.51228
G1 X106.222 Y71.404 E44.53175
G1 X106.066 Y71.844 E44.55116
G1 X105.959 Y72.301 E44.57067
G1 X105.906 Y72.766 E44.59013
G1 X105.906 Y73.234 E44.60959
G1 X105.959 Y73.699 E44.62904
G1 X106.066 Y74.156 E44.64856
G1 X106.222 Y74.596 E44.66797
G1 X106.429 Y75.016 E44.68743
G1 X106.681 Y75.41 E44.70688
G1 X106.978 Y75.774 E44.72641
G1 X107.315 Y76.099 E44.74587
G1 X107.684 Y76.384 E44.76526
G1 X108.086 Y76.627 E44.78479
G1 X108.512 Y76.822 E44.80427
G1 X108.958 Y76.967 E44.82376
G1 X109.416 Y77.059 E44.84319
G1 X109.882 Y77.099 E44.86263
G1 X110.352 Y77.086 E44.88218
G1 X110.814 Y77.019 E44.90159
G1 X111.268 Y76.901 E44.92109
G1 X111.704 Y76.73 E44.94056
G1 X112.117 Y76.512 E44.95998
G1 X112.503 Y76.248 E44.97942
G1 X112.858 Y75.941 E44.99893
G1 X113.174 Y75.596 E45.01838
G1 X113.45 Y75.217 E45.03788
G1 X113.681 Y74.809 E45.05737
G1 X113.862 Y74.378 E45.0768
G1 X113.994 Y73.929 E45.09626
G1 X114.074 Y73.468 E45.11571
G1 X114.101 Y73 E45.1352
G1 X114.074 Y72.532 E45.15469
G1 X113.994 Y72.071 E45.17414
G1 X113.862 Y71.622 E45.1936
G1 X113.681 Y71.191 E45.21304
G1 X113.45 Y70.783 E45.23253
G1 X113.174 Y70.404 E45.25202
G1 X112.858 Y70.059 E45.27147
G1 X112.503 Y69.752 E45.29099
G1 X112.117 Y69.488 E45.31043
G1 X111.704 Y69.27 E45.32984
G1 X111.268 Y69.099 E45.34931
G1 X110.814 Y68.981 E45.36882
G1 X110.352 Y68.914 E45.38823
G1 X109.882 Y68.901 E45.40777
G1 X109.416 Y68.941 E45.42722
G1 X108.958 Y69.033 E45.44664
G1 X108.512 Y69.178 E45.46614
G1 X108.086 Y69.373 E45.48562
G1 X107.684 Y69.616 E45.50515
G1 X107.315 Y69.901 E45.52453
G1 X106.978 Y70.226 E45.544
G1 X106.681 Y70.59 E45.56353
G0 F5400 X106.601 Y70.532
G0 X106.028 Y71.833
G0 X105.867 Y72.764
G0 X105.909 Y73.525
G0 X107.576 Y81.698
G0 X107.66 Y81.75
G1 F1800 X107.433 Y82.206 E45.5847
G1 X107.295 Y82.694 E45.60579
G1 X107.247 Y83.2 E45.62692
G1 X107.295 Y83.706 E45.64805
G1 X107.433 Y84.194 E45.66914
G1 X107.66 Y84.65 E45.69031
G1 X107.966 Y85.054 E45.71138
G1 X108.341 Y85.396 E45.73248
G1 X108.774 Y85.665 E45.75368
G1 X109.247 Y85.847 E45.77475
G1 X109.746 Y85.941 E45.79586
G1 X110.254 Y85.941 E45.81698
G1 X110.753 Y85.847 E45.83809
G1 X111.226 Y85.665 E45.85916
G1 X111.659 Y85.396 E45.88035
G1 X112.034 Y85.054 E45.90145
G1 X112.34 Y84.65 E45.92253
G1 X112.567 Y84.194 E45.9437
G1 X112.705 Y83.706 E45.96479
G1 X112.753 Y83.2 E45.98592
G1 X112.705 Y82.694 E46.00705
G1 X112.567 Y82.206 E46.02813
G1 X112.34 Y81.75 E46.04931
G1 X112.034 Y81.346 E46.07038
G1 X111.659 Y81.004 E46.09148
G1 X111.226 Y80.735 E46.11268
G1 X110.753 Y80.553 E46.13375
G1 X110.254 Y80.459 E46.15486
G1 X109.746 Y80.459 E46.17598
G1 X109.247 Y80.553 E46.19709
